X: 41092
T: Trip To Paul
R: reel
M: 4/4
K: Dmajor
~A3B dBAB|~F3E DEFD|~A3B dBAB|efde fedB|
~A3B dBAB|~F3E DEFD|ABdb abfe|dBAF ~E2D2:|
|:~a3b faef|d2Bd efdb|~a3b abaf|efde fedb|
~a3b faef|d2Bd efdB|ABdb abfe|dBAF ~E2D2:|

